static/assets/svg/font/role-administrator.svg

<svg xmlns="http://www.w3.org/2000/svg" viewBox="0 0 24.178 25.5"><path d="M19.455 8.212c0-4.062-3.305-7.367-7.367-7.367-4.062 0-7.367 3.305-7.367 7.367 0 4.062 3.305 7.367 7.367 7.367 4.062 0 7.367-3.305 7.367-7.367zm-13.534 0c0-3.4 2.767-6.167 6.167-6.167s6.168 2.767 6.168 6.167c0 3.401-2.768 6.168-6.168 6.168s-6.167-2.767-6.167-6.168zM.504 22.399h1.213a10.486 10.486 0 0 1 4.876-7.462 8.851 8.851 0 0 1-.944-.828 11.694 11.694 0 0 0-5.145 8.29zm18.023-8.29a8.633 8.633 0 0 1-.944.828 10.487 10.487 0 0 1 4.877 7.462h1.212a11.694 11.694 0 0 0-5.145-8.29zm-3.552 9.189l1.999 1.252 2-1.252v-4.149h-3.999v4.149zm1.199-2.95h1.601v2.286l-.801.5-.8-.5v-2.286zM11.9 17.499h1.2v8h-1.2z"/></svg>

<?xml version="1.0" encoding="utf-8"?>
<!-- Generator: Adobe Illustrator 22.0.0, SVG Export Plug-In . SVG Version: 6.00 Build 0)  -->
<svg version="1.1" id="Layer_1" xmlns="http://www.w3.org/2000/svg" xmlns:xlink="http://www.w3.org/1999/xlink" x="0px" y="0px"
	 viewBox="0 0 24.178 25.5" enable-background="new 0 0 24.178 25.5" xml:space="preserve">
<g>
	<path d="M19.455,8.212c0-4.062-3.305-7.367-7.367-7.367c-4.062,0-7.367,3.305-7.367,7.367c0,4.062,3.305,7.367,7.367,7.367
		C16.15,15.579,19.455,12.274,19.455,8.212z M5.921,8.212c0-3.4,2.767-6.167,6.167-6.167s6.168,2.767,6.168,6.167
		c0,3.401-2.768,6.168-6.168,6.168S5.921,11.613,5.921,8.212z"/>
	<path d="M0.504,22.399h1.213c0.439-3.153,2.28-5.855,4.876-7.462c-0.335-0.253-0.649-0.531-0.944-0.828
		C2.875,15.95,0.935,18.942,0.504,22.399z"/>
	<path d="M18.527,14.109c-0.295,0.298-0.609,0.576-0.944,0.828c2.596,1.607,4.438,4.309,4.877,7.462h1.212
		C23.241,18.942,21.301,15.95,18.527,14.109z"/>
	<path d="M14.975,23.298l1.999,1.252l2-1.252v-4.149h-3.999V23.298z M16.174,20.348h1.601v2.286l-0.801,0.5l-0.8-0.5V20.348z"/>
	<rect x="11.9" y="17.499" width="1.2" height="8"/>
</g>
</svg>
